!!!COM: Sousa, John Phillip
!!!CDT: 1854/11/05/-1932/04/08/
!!!OTL: The Gladiator March
!!!ODT: 1886///
!!!ONB: Arrangement for keyboard
**kern	**kern	**dynam
*staff2	*staff1	*staff1
*Ipiano	*Ipiano	*Ipiano
*>[I,A,A1,A,A2,B,B1,B,B2,C,C1,C,C2,D,D1,D,D2]	*>[I,A,A1,A,A2,B,B1,B,B2,C,C1,C,C2,D,D1,D,D2]	*>[I,A,A1,A,A2,B,B1,B,B2,C,C1,C,C2,D,D1,D,D2]
*>norep[I,A,A2,B,B2,C,C2,D,D2]	*>norep[I,A,A2,B,B2,C,C2,D,D2]	*>norep[I,A,A2,B,B2,C,C2,D,D2]
*>I	*>I	*>I
*clefF4	*clefG2	*clefG2
*k[b-]	*k[b-]	*k[b-]
*d:	*d:	*d:
*M2/2	*M2/2	*M2/2
*MM180	*MM180	*MM180
=1-	=1-	=1-
4.AAA^/ 4.AA^/	2r	.
(8AAA/ 8AA/	.	.
2BBB-/) 2BB-/	4r	.
.	4f^\ 4dd^\ 4ff^\	ff
=2	=2	=2
4.AAA^/ 4.AA^/	2r	.
(8AAA/ 8AA/	.	.
2GGG#/) 2GG#/	4r	.
.	4f^\ 4dd^\ 4ff^\	.
=3	=3	=3
*	*^	*
4.AAA^/ 4.AA^/	2r	4r	.
.	.	4f^\ 4dd^\ 4ff^\	.
8AAA/ 8AA/	.	.	.
(4BBB-/ 4BB-/	4dd/	2g\ 2ee\ (2gg\	.
4AAA/ 4AA/	4cc#/	.	.
*	*v	*v	*
=4	=4	=4
4DDD/) 4DD/	&(4f\&) 4dd\ 4ff\)	.
4r	(4dd\	p
2r	4.a/	.
.	8dd\)	.
=5|:	=5|:	=5|:
*>A	*>A	*>A
4GG/	[1b-	p
4G\ 4B-\ 4d\	.	.
4G\ 4B-\ 4d\	.	.
4G\ 4B-\ 4d\	.	.
=6	=6	=6
4AA/	4b-\]	.
4G\ 4A\ 4c#\	(4g/	.
4G\ 4A\ 4c#\	4.e/	.
4G\ 4A\ 4c#\	.	.
.	8a/)	.
=7	=7	=7
4D\	([1d	.
4F\ 4A\	.	.
4AA/	.	.
4F\ 4A\	.	.
=8	=8	=8
4FF/	4d/]	<
4F\ 4A\	4f/	.
4DD/	4a/	.
4F\ 4A\ 4d\	4dd\)	.
=9	=9	=9
4GG^/ 4G^/	2.ee-\	.
8G\ 8B-\ 8e-\L	.	.
8G\ 8B-\ 8e-\J	.	.
4G\ 4B-\ 4e-\	.	.
4G\ 4B-\ 4e-\	4ee-\	.
=10	=10	=10
4GG#^/ 4G#^/	2.een\	.
8G#\ 8Bn\ 8e\L	.	.
8G#\ 8B\ 8e\J	.	.
4G#\ 4B\ 4e\	.	.
4G#\ 4B\ 4e\	4ee\	.
=11	=11	=11
4AA\ 4A\	[1a	f
8A\ 8c#\ 8e\L	.	.
8A\ 8c#\ 8e\J	.	.
4A\ 4c#\ 4e\	.	.
4A\ 4c#\ 4e\	.	.
=12	=12	=12
1D^ 1F^ 1A^ 1d^	4a/]	.
.	(4dd\	p
.	4.a/	.
.	8dd\)	.
=13	=13	=13
4GG/	[1b-	.
4G\ 4B-\ 4d\	.	.
4G\ 4B-\ 4d\	.	.
4G\ 4B-\ 4d\	.	.
=14	=14	=14
4AA/	4b-\]	.
4G\ 4A\ 4c#\	(4g/	.
4G\ 4A\ 4c#\	4.e/	.
4G\ 4A\ 4c#\	.	.
.	8a/)	.
=15	=15	=15
4D\	([1d	.
4F\ 4A\	.	.
4AA/	.	.
4F\ 4A\	.	.
=16	=16	=16
4FF/	4d/]	<
4F\ 4A\	4f/	.
4DD/	4a/	.
4F\ 4A\ 4d\	4dd\)	.
=17	=17	=17
4BB-^/	2.f^\ 2.ff^\	ff
8F\ 8G#\ 8d\L	.	.
8F\ 8G#\ 8d\J	.	.
4F\ 4G#\ 4d\	.	.
4E\ 4G#\ 4d\	4e/ 4ee/	.
=18	=18	=18
4BB-^/	2.f^\ 2.ff^\	.
8F\ 8G#\ 8d\L	.	.
8F\ 8G#\ 8d\J	.	.
4F\ 4G#\ 4d\	.	.
4E\ 4G#\ 4d\	4e/ 4ee/	.
=19	=19	=19
4A\ 4c#\	4a\ 4aa\	.
4r	4r	.
4AA^\ 4C#^\ 4E^\ 4A^\	4a^\ 4cc#^\ 4ee^\ 4aa^\	.
4r	4r	.
=20	=20	=20
*>A1	*>A1	*>A1
1r	4r	.
.	4dd\	p
.	(4.a/	.
.	8dd\)	.
=21:|!	=21:|!	=21:|!
*>A2	*>A2	*>A2
1r	4r	.
.	4a'\ 4aa'\	ff
.	4g#'\ 4gg#'\	.
.	4a'\ 4aa'\	.
=22!|:	=22!|:	=22!|:
*>B	*>B	*>B
4GG/ 4G/	2.b-^\ 2.bb-^\	ff
4B-\ 4c\ 4e\	.	.
4C/	.	.
4B-\ 4c\ 4e\	4cc'\ 4ccc'\	.
=23	=23	=23
4GG/ 4G/	4dd'\ 4ddd'\	.
4B-\ 4c\ 4e\	4cc'\ 4ccc'\	.
4C/	4dd'\ 4ddd'\	.
4B-\ 4c\ 4e\	4ee'\ 4eee'\	.
=24	=24	=24
4FF/ 4F/	2.a^\ 2.aa^\	.
4A\ 4c\ 4f\	.	.
4C/	.	.
4A\ 4c\ 4f\	4b-'\ 4bb-'\	.
=25	=25	=25
4FF/ 4F/	4cc'\ 4ccc'\	.
4A\ 4c\ 4f\	4bn'\ 4bbn'\	.
4C/	4cc'\ 4ccc'\	.
4A\ 4c\ 4f\	4dd'\ 4ddd'\	.
=26	=26	=26
4EE/ 4E/	2.g^\ 2.gg^\	.
4B-\ 4c\ 4e\	.	.
4C/	.	.
4B-\ 4c\ 4e\	4a'\ 4aa'\	.
=27	=27	=27
4EE/ 4E/	4b-'\ 4bb-'\	.
4B-\ 4c\ 4e\	4cc'\ 4ccc'\	.
4C/	4dd'\ 4ddd'\	.
4B-\ 4c\ 4e\	4ee'\ 4eee'\	.
=28	=28	=28
4FF/ 4F/	4.gg^\ (4.ggg^\	.
4A\ 4c\ 4f\	.	.
.	8ff\ 8fff\)	.
[2F^\ 2G#^\ 2Bn^\ [2f^\	4.ee^\ (4.eee^\	.
.	8ff\ 8fff\)	.
=29	=29	=29
4F\] 4A\ 4c\ 4f\]	4cc\ 4ccc\	.
4C^\ 4c^\	4cc\ 4ccc\	.
4AA^\ 4A^\	4.dd^\ 4.ddd^\	.
4FF^/ 4F^/	.	.
.	8a\ 8aa\	.
=30	=30	=30
4GG/ 4G/	2.b-^\ 2.bb-^\	.
4B-\ 4c\ 4e\	.	.
4C/	.	.
4B-\ 4c\ 4e\	4cc'\ 4ccc'\	.
=31	=31	=31
4GG/ 4G/	4dd'\ 4ddd'\	.
4B-\ 4c\ 4e\	4cc'\ 4ccc'\	.
4C/	4dd'\ 4ddd'\	.
4B-\ 4c\ 4e\	4ee'\ 4eee'\	.
=32	=32	=32
4FF/ 4F/	2.a^\ 2.aa^\	.
4A\ 4c\ 4f\	.	.
4C/	.	.
4A\ 4c\ 4f\	4b-'\ 4bb-'\	.
=33	=33	=33
4FF/ 4F/	4cc'\ 4ccc'\	.
4A\ 4c\ 4f\	4bn'\ 4bbn'\	.
4C/	4cc'\ 4ccc'\	.
4A\ 4c\ 4f\	4dd'\ 4ddd'\	.
=34	=34	=34
4EE/ 4E/	2.g^\ 2.gg^\	.
4B-\ 4c\ 4e\	.	.
4C/	.	.
4B-\ 4c\ 4e\	4a'\ 4aa'\	.
=35	=35	=35
4EE/ 4E/	4b-'\ 4bb-'\	.
4B-\ 4c\ 4e\	4cc'\ 4ccc'\	.
4C/	4dd'\ 4ddd'\	.
4B-\ 4c\ 4e\	4ee'\ 4eee'\	.
=36	=36	=36
*>B1	*>B1	*>B1
4F\	[1ff [1fff	.
4F\ 4A\ 4c\ 4f\	.	.
4F\ 4A\ 4c\ 4f\	.	.
4F\ 4A\ 4c\ 4f\	.	.
=37	=37	=37
4F\ 4A\ 4c\ 4f\	4.ff\] 4.fff\]	.
4r	.	.
.	8ee\ 8eee\	.
2r	4.dd\ 4.ddd\	.
.	8cc\ 8ccc\	.
=38:|!	=38:|!	=38:|!
*>B2	*>B2	*>B2
4F\	[1ff [1fff	.
4F\ 4A\ 4c\ 4f\	.	.
4F\ 4A\ 4c\ 4f\	.	.
4F\ 4A\ 4c\ 4f\	.	.
=39	=39	=39
4F\ 4A\ 4c\ 4f\	4ff\] 4fff\]	.
4r	(4d/	p
2r	4e-/	.
.	4en/)	.
=40	=40	=40
*>C	*>C	*>C
*k[b-e-]	*k[b-e-]	*k[b-e-]
4BB-/	2f/	p
4F\ 4B-\ 4d\	.	.
4FF/	(4.g/	.
4F\ 4B-\ 4d\	.	.
.	8a/)	.
=41	=41	=41
4BB-/	2b-\	.
4F\ 4B-\ 4d\	.	.
4FF/	2dd\	.
4F\ 4B-\ 4d\	.	.
=42	=42	=42
4C/	[1a^ [1ee-^ ([1ff^	.
4F\ 4A\ 4e-\	.	.
4FF/	.	.
4F\ 4A\ 4e-\	.	.
=43	=43	=43
4C/	4a\] 4ee-\] 4ff\]	.
4F\ 4A\ 4e-\	4ee-\	.
4FF/	4.bn\	.
4F\ 4A\ 4e-\	.	.
.	8cc\)	.
=44	=44	=44
4AA/	[1f^ ([1dd^	.
4F\ 4A\ 4e-\	.	.
4FF/	.	.
4F\ 4A\ 4e-\	.	.
=45	=45	=45
4AA/	4f/] 4dd/]	.
4F\ 4A\ 4e-\	4cc\	.
4FF/	4.g/	.
4F\ 4A\ 4e-\	.	.
.	8a/)	.
=46	=46	=46
4BB-/	[1g	.
8En\ 8B-\ 8d-\L	.	.
8E\ 8B-\ 8d-\J	.	.
4E\ 4B-\ 4d-\	.	.
4E\ 4B-\ 4d-\	.	.
=47	=47	=47
4BB-/	2g/]	.
4F\ 4B-\ 4dn\	.	.
4FF/	2f/	.
4F\ 4B-\ 4d\	.	.
=48	=48	=48
4BB-/	2f/	.
4F\ 4B-\ 4d\	.	.
4FF/	(4.g/	.
4F\ 4B-\ 4d\	.	.
.	8a/)	.
=49	=49	=49
4BB-/	2b-\	<
4F\ 4B-\ 4d\	.	.
4FF/	2dd\	.
4F\ 4B-\ 4d\	.	.
=50	=50	=50
4EE-/	[1b- [1ee- ([1gg	.
4G\ 4B-\ 4e-\	.	.
4E-\	.	.
4G\ 4B-\ 4e-\	.	.
=51	=51	=51
4E-\	4b-\] 4ee-\] 4gg\]	.
4G\ 4B-\ 4e-\	4ff\	.
4E-\	4ee-\	.
4G-\ 4B-\ 4e-\	4g-/)	.
=52	=52	=52
4F\	(4.b-\	.
4B-\ 4d\	.	.
.	8f/	.
4F\	4.dd\	.
4B-\ 4d\	.	.
.	8cc\)	.
=53	=53	=53
4FF/ 4F/	2f\ 2a\ (2ee-\	<
4F\ 4A\ 4c\	.	.
4FF/ 4F/	2e-/ 2f/ 2a/	.
4E-\ 4F\ 4A\	.	.
=54	=54	=54
*>C1	*>C1	*>C1
4BB-\ 4D\ 4F\ 4B-\	4b-\)	<
(4DD/ 4D/	4r	.
4EE-/ 4E-/	2r	.
4EEn/ 4En/	.	.
=55	=55	=55
4FF/) 4F/	4r	.
4r	(4d/	.
2r	4e-/	.
.	4en/)	.
=56:|!	=56:|!	=56:|!
*>C2	*>C2	*>C2
4BB-\ 4D\ 4F\ 4B-\	4b-\	.
(4BBB-/ 4BB-/	4r	.
4CC/ 4C/	2r	.
4CC#/ 4C#/	.	.
=57	=57	=57
4DD/) 4D/	4r	.
4r	(8ee-\L	ff
.	8dd\J)	.
2r	(8dd\L	.
.	8cc\J)	.
.	(8cc\L	.
.	8b-\J)	.
=58!|:	=58!|:	=58!|:
*>D	*>D	*>D
4r	[1a	f
4EE-^/ 4E-^/	.	.
4DD^/ 4D^/	.	.
4CC#^/ 4C#^/	.	.
=59	=59	=59
4DD^/ 4D^/	4a/]	.
4r	(8dd\L	.
.	8cc\J)	.
2r	(8cc\L	.
.	8b-\J)	.
.	(8b-/L	.
.	8a/J)	.
=60	=60	=60
4r	[1g	.
4AAA^/ 4AA^/	.	.
4GGG^/ 4GG^/	.	.
4FFF#^/ 4FF#^/	.	.
=61	=61	=61
4GGG^/ 4GG^/	4g/]	.
4r	(8ee-\L	.
.	8dd\J)	.
2r	(8dd\L	.
.	8cc\J)	.
.	(8cc\L	.
.	8b-\J)	.
=62	=62	=62
4r	[1a	.
4EE-^/ 4E-^/	.	.
4DD^/ 4D^/	.	.
4CC#^/ 4C#^/	.	.
=63	=63	=63
4DD^/ 4D^/	4a/]	.
4r	(8dd\L	.
.	8cc\J)	.
2r	(8cc\L	.
.	8b-\J)	.
.	(8b-/L	.
.	8a/J)	.
=64	=64	=64
4r	[1g	.
4AAA^/ 4AA^/	.	.
4GGG^/ 4GG^/	.	.
4FFF#^/ 4FF#^/	.	.
=65	=65	=65
4GGG^/ 4GG^/	4g/]	.
4r	8g'\ 8gg'\L	.
.	8f#'\ 8ff#'\J	.
2r	8g'\ 8gg'\L	.
.	8a'\ 8aa'\	.
.	8b-'\ 8bb-'\	.
.	8cc'\ 8ccc'\J	.
=66	=66	=66
4r	[1dd [1ddd	.
8GG^/ 8G^/L	.	.
8FF#^/ 8F#^/J	.	.
4GG^/ 4G^/	.	.
4BB-^\ 4B-^\	.	.
=67	=67	=67
4DD^/ 4D^/	4dd\] 4ddd\]	.
4r	8g'\ 8gg'\L	.
.	8f#'\ 8ff#'\J	.
2r	8g'\ 8gg'\L	.
.	8a'\ 8aa'\	.
.	8b-'\ 8bb-'\	.
.	8cc'\ 8ccc'\J	.
=68	=68	=68
4r	[1dd [1ddd	.
8GG/ 8G/L	.	.
8FF#/ 8F#/J	.	.
4GG/ 4G/	.	.
4BB-\ 4B-\	.	.
=69	=69	=69
4DD/ 4D/	4dd\] 4ddd\]	f
4r	8dd'\L	.
.	8dd'\J	.
2r	4dd'\	.
.	8dd'\L	.
.	8dd'\J	.
=70	=70	=70
1r	4dd\	.
.	8dd\L	.
.	8dd\J	.
.	4dd\	.
.	8dd\L	.
.	8dd\J	.
=71	=71	=71
(4DD/	(4d/	.
4D/)	4dd/)	.
(4DD/	(4d/	.
4D/)	4dd/)	.
=72	=72	=72
4DD/ 4D/	4d/ 4dd/	<
4r	4d^/ 4dd^/	.
2r	4e-^/ 4ee-^/	.
.	4en^/ 4een^/	.
=73	=73	=73
4BB-/	2f\ 2ff\	ff
4F\ 4B-\ 4d\	.	.
4FF/ 4F/	4.g\ (4.gg\	.
4F\ 4B-\ 4d\	.	.
.	8a\ 8aa\)	.
=74	=74	=74
4BB-/	2b-\ 2bb-\	.
4F\ 4B-\ 4d\	.	.
4FF/ 4F/	2dd\ 2ddd\	.
4F\ 4B-\ 4d\	.	.
=75	=75	=75
4C/	[1ff [1fff	.
4F\ 4A\ 4e-\	.	.
4FF/ 4F/	.	.
4F\ 4A\ 4e-\	.	.
=76	=76	=76
4C/	4ff\] 4fff\]	.
4F\ 4A\ 4e-\	4ee-\ 4eee-\	.
4FF/ 4F/	4.bn\ (4.bbn\	.
4F\ 4A\ 4e-\	.	.
.	8cc\ 8ccc\)	.
=77	=77	=77
4AA/	[1dd [1ddd	.
4F\ 4A\ 4c\ 4e-\	.	.
4FF/ 4F/	.	.
4F\ 4A\ 4c\ 4e-\	.	.
=78	=78	=78
4AA/	4dd\] 4ddd\]	.
4F\ 4A\ 4c\ 4e-\	4cc\ 4ccc\	.
4FF/	4.g\ (4.gg\	.
4F\ 4A\ 4c\ 4e-\	.	.
.	8a\ 8aa\)	.
=79	=79	=79
4BB-/	[1g^ [1gg^	.
4En\ 4G\ 4B-\ 4d-\	.	.
4BB-/	.	.
4E\ 4G\ 4B-\ 4d-\	.	.
=80	=80	=80
4BB-/	2g\] 2gg\]	.
4F\ 4B-\ 4d\	.	.
4BB-/	2f\ 2ff\	.
4F\ 4B-\ 4d\	.	.
=81	=81	=81
4BB-/	2f\ 2ff\	.
4F\ 4B-\ 4d\	.	.
4FF/ 4F/	4.g\ (4.gg\	.
4F\ 4B-\ 4d\	.	.
.	8a\ 8aa\)	.
=82	=82	=82
4BB-/	2b-\ 2bb-\	.
4F\ 4B-\ 4d\	.	.
4FF/ 4F/	2dd\ 2ddd\	.
4F\ 4B-\ 4d\	.	.
=83	=83	=83
4EE-/ 4E-/	[1gg [1ggg	.
4G\ 4B-\ 4e-\	.	.
4EE-/ 4E-/	.	.
4G\ 4B-\ 4e-\	.	.
=84	=84	=84
4EE-/ 4E-/	4gg\] 4ggg\]	.
4G\ 4B-\ 4e-\	4ff\ 4fff\	.
4EE-/ 4E-/	4ee-\ 4eee-\	.
4G-\ 4B-\ 4e-\	4g-\ 4gg-\	.
=85	=85	=85
4FF/ 4F/	4.b-\ 4.bb-\	.
4F\ 4B-\ 4d\	.	.
.	8f\ 8ff\	.
4FF/ 4F/	4.dd\ 4.ddd\	.
4F\ 4B-\ 4d\	.	.
.	8cc\ 8ccc\	.
=86	=86	=86
4FF/ 4F/	2ee-\ 2eee-\	.
4F\ 4A\ 4c\ 4e-\	.	.
4FF/ 4F/	2a\ 2aa\	.
4F\ 4A\ 4c\ 4e-\	.	.
=87	=87	=87
*>D1	*>D1	*>D1
4B-\ 4d\	4b-\ 4bb-\	.
(4BBB-/ 4BB-/	4r	.
4CC/ 4C/	2r	.
4CC#/) 4C#/	.	.
=88	=88	=88
4DD/ 4D/	4r	.
4r	(8ee-\L	.
.	8dd\J)	.
2r	(8dd\L	.
.	8cc\J)	.
.	(8cc\L	.
.	8b-\J)	.
=89:|!	=89:|!	=89:|!
*>D2	*>D2	*>D2
*	*^	*
4B-\ 4d\	[1b- [1bb-	4r	.
4BB-^\ 4B-^\	.	4dd\ 4ff\	.
4FF^/ 4F^/	.	4dd\ 4ff\	.
4DD^/ 4D^/	.	4dd\ 4ff\	.
*	*v	*v	*
=90	=90	=90
4BBB-^/ 4BB-^/	4b-\] 4dd\ 4ff\ 4bb-\]	.
4r	4r	.
2r	2r	.
==	==	==
*-	*-	*-
!!!ENC: Craig Stuart Sapp
!!!END: 2007/06/18/
